X: 7
T:By The Dry Cardrona
M:4/4
L:1/4
Q:60
C:James K Baxter
K:D
&quot;D&quot;ff&quot;A&quot;ef/e/|&quot;D&quot;d<AA2|&quot;Bm&quot;d>ddf|
&quot;A&quot;f<e-e2|&quot;D&quot;aaag|!
fe/d/&quot;G&quot;GG/G/|&quot;A&quot;A>AAA|AB/c/&quot;D&quot;de/f/|
&quot;G&quot;ge&quot;D&quot;fd|&quot;A&quot;c&quot;D&quot;d3|z3A:||
